packages/ffe-icons/icons/filled/md/reduce_capacity.svg

<svg xmlns="http://www.w3.org/2000/svg" height="24" viewBox="0 -960 960 960" width="24"><path d="M130.001-90v-14.154q0-21.307 11.461-38.038 11.462-16.73 31.384-25.577 24.847-11 51.577-16.615 26.731-5.615 55.577-5.615 28.846 0 55.577 5.615 26.73 5.615 51.577 16.615 19.922 8.847 31.384 25.577 11.461 16.731 11.461 38.038v14.153H130.001Zm400 0v-14.154q0-21.307 11.461-38.038 11.462-16.73 31.384-25.577 24.847-11 51.577-16.615 26.731-5.615 55.577-5.615 28.846 0 55.577 5.615 26.73 5.615 51.577 16.615 19.922 8.847 31.384 25.577 11.461 16.731 11.461 38.038v14.153H530.001ZM280-250.002q-29.154 0-49.576-20.423-20.423-20.422-20.423-49.576t20.423-49.576q20.422-20.423 49.576-20.423t49.576 20.423q20.423 20.422 20.423 49.576t-20.423 49.576Q309.154-250.001 280-250.001Zm400 0q-29.154 0-49.576-20.423-20.423-20.422-20.423-49.576t20.423-49.576q20.422-20.423 49.576-20.423t49.576 20.423q20.423 20.422 20.423 49.576t-20.423 49.576Q709.154-250.001 680-250.001ZM503.846-419.614l37.77-37.77q7.077-6.462 16.384-6.462t16.384 7.077q7.077 7.077 7.077 16.577 0 9.499-7.077 16.576l-69.077 69.462Q494.461-343.308 480-343.308q-14.461 0-25.307-10.846l-69.462-69.462q-7.077-7.077-6.884-16.576.192-9.5 7.269-16.577 7.077-7.077 16.576-6.769 9.5.308 16.577 6.769l37.385 37.155V-490q0-10.307 6.769-17.077 6.77-6.769 17.077-6.769 10.307 0 17.077 6.769 6.769 6.77 6.769 17.077v70.386ZM90.001-570.001v-14.153q0-21.307 11.461-38.038 11.462-16.73 31.384-25.577 24.847-11 51.577-16.615 26.731-5.615 55.577-5.615 21.154 0 41.423 3.192 20.27 3.192 38.27 8.962-13.539 14.692-21.615 33.23-8.077 18.538-8.077 40.461v14.153h-200Zm240 0v-14.153q0-21.307 11.461-38.038 11.462-16.73 31.384-25.577 24.847-11 51.577-16.615 26.731-5.615 55.577-5.615 28.846 0 55.577 5.615 26.73 5.615 51.577 16.615 19.922 8.847 31.384 25.577 11.461 16.731 11.461 38.038v14.153H330.001Zm339.998 0v-14.153q0-21.923-7.884-40.461-7.885-18.538-21.423-33.23 18-5.77 38.077-8.962 20.077-3.192 41.231-3.192 28.846 0 55.577 5.615 26.73 5.615 51.577 16.615 19.922 8.847 31.384 25.577 11.461 16.731 11.461 38.038v14.153h-200ZM240-730.001q-29.154 0-49.576-20.423-20.423-20.422-20.423-49.576t20.423-49.576q20.422-20.423 49.576-20.423t49.576 20.423q20.423 20.422 20.423 49.576t-20.423 49.576Q269.154-730.001 240-730.001Zm240 0q-29.154 0-49.576-20.423-20.423-20.422-20.423-49.576t20.423-49.576q20.422-20.423 49.576-20.423t49.576 20.423q20.423 20.422 20.423 49.576t-20.423 49.576Q509.154-730.001 480-730.001Zm240 0q-29.154 0-49.576-20.423-20.423-20.422-20.423-49.576t20.423-49.576q20.422-20.423 49.576-20.423t49.576 20.423q20.423 20.422 20.423 49.576t-20.423 49.576Q749.154-730.001 720-730.001Z"/></svg>

<svg xmlns="http://www.w3.org/2000/svg" height="24" viewBox="0 -960 960 960" width="24"><path d="M130-90v-14.15q0-21.31 11.46-38.04t31.39-25.58q24.84-11 51.57-16.61Q251.15-190 280-190q28.85 0 55.58 5.62 26.73 5.61 51.57 16.61 19.93 8.85 31.39 25.58Q430-125.46 430-104.15V-90H130Zm400 0v-14.15q0-21.31 11.46-38.04t31.39-25.58q24.84-11 51.57-16.61Q651.15-190 680-190q28.85 0 55.58 5.62 26.73 5.61 51.57 16.61 19.93 8.85 31.39 25.58Q830-125.46 830-104.15V-90H530ZM280-250q-29.15 0-49.58-20.42Q210-290.85 210-320t20.42-49.58Q250.85-390 280-390t49.58 20.42Q350-349.15 350-320t-20.42 49.58Q309.15-250 280-250Zm400 0q-29.15 0-49.58-20.42Q610-290.85 610-320t20.42-49.58Q650.85-390 680-390t49.58 20.42Q750-349.15 750-320t-20.42 49.58Q709.15-250 680-250ZM503.85-419.61l37.77-37.77q7.07-6.47 16.38-6.47 9.31 0 16.38 7.08 7.08 7.08 7.08 16.58 0 9.5-7.08 16.57l-69.07 69.47q-10.85 10.84-25.31 10.84-14.46 0-25.31-10.84l-69.46-69.47q-7.08-7.07-6.88-16.57.19-9.5 7.27-16.58 7.07-7.08 16.57-6.77 9.5.31 16.58 6.77l37.38 37.16V-490q0-10.31 6.77-17.08 6.77-6.77 17.08-6.77 10.31 0 17.08 6.77 6.77 6.77 6.77 17.08v70.39ZM90-570v-14.15q0-21.31 11.46-38.04t31.39-25.58q24.84-11 51.57-16.61Q211.15-670 240-670q21.15 0 41.42 3.19 20.27 3.2 38.27 8.96-13.54 14.7-21.61 33.24-8.08 18.53-8.08 40.46V-570H90Zm240 0v-14.15q0-21.31 11.46-38.04t31.39-25.58q24.84-11 51.57-16.61Q451.15-670 480-670q28.85 0 55.58 5.62 26.73 5.61 51.57 16.61 19.93 8.85 31.39 25.58Q630-605.46 630-584.15V-570H330Zm340 0v-14.15q0-21.93-7.89-40.46-7.88-18.54-21.42-33.24 18-5.76 38.08-8.96Q698.85-670 720-670q28.85 0 55.58 5.62 26.73 5.61 51.57 16.61 19.93 8.85 31.39 25.58Q870-605.46 870-584.15V-570H670ZM240-730q-29.15 0-49.58-20.42Q170-770.85 170-800t20.42-49.58Q210.85-870 240-870t49.58 20.42Q310-829.15 310-800t-20.42 49.58Q269.15-730 240-730Zm240 0q-29.15 0-49.58-20.42Q410-770.85 410-800t20.42-49.58Q450.85-870 480-870t49.58 20.42Q550-829.15 550-800t-20.42 49.58Q509.15-730 480-730Zm240 0q-29.15 0-49.58-20.42Q650-770.85 650-800t20.42-49.58Q690.85-870 720-870t49.58 20.42Q790-829.15 790-800t-20.42 49.58Q749.15-730 720-730Z"/></svg>
